X:3
T:Scarborough Fair
C:
M:3/4
L:1/4
K:Dmaj
Q:1/4=160
E2 E | B3/2 A/ B | F> G F | E3|-E B d | e2 d | B c A | B3- |B z B | 
e2 e | d2 B | B A G | F D2 | E2 B | A2 G | F E D | E3- | E |

